svg/color/qqqon.svg

<svg width="40" height="40" viewBox="0 0 40 40" fill="none" xmlns="http://www.w3.org/2000/svg">
<g clip-path="url(#clip0_878_7)">
<path d="M20 0C31.0457 0 40 8.9543 40 20C40 31.0457 31.0457 40 20 40C8.95431 40 7.90517e-06 31.0457 0 20C6.58765e-07 8.95431 8.95431 1.97595e-06 20 0Z" fill="#E9D4FC"/>
<path d="M26 6C30.4183 6 34 9.58172 34 14V26C34 30.4183 30.4183 34 26 34H14C9.58172 34 6 30.4183 6 26V14C6 9.58172 9.58172 6 14 6H26Z" fill="#450E78"/>
<g clip-path="url(#clip1_878_7)">
<path d="M23.2603 23.1425L22.5378 23.8846L21.8353 23.1476L21.4566 22.001L20.3803 21.6223L20.3782 20.9083L19.6782 20.9104L19.3091 22.7222L19.6878 23.8944L18.0403 24.639L17.5378 23.9016L17.8853 23.1604L17.8828 22.3699L16.8078 22.3737L15.3878 23.9084L14.312 23.5552L14.3066 22.0252L12.4307 21.7252L11.0832 22.4693L10.282 22.1149L10.277 20.5598L11.0007 20.1998L13.8711 18.737L14.297 19.0927L15.3691 17.9928L15.3666 17.2784L16.7866 15.8202L17.507 14.2622L18.5757 12.4483L20.3499 12.0853L21.0749 12.0828L21.077 12.7968L22.507 14.2456L22.5116 15.8011L24.7441 17.9614L26.8986 19.4327L27.9745 19.7863L28.3532 20.8815L29.7807 21.5913L29.0578 22.3325L28.3582 22.335L28.3557 21.596L27.2795 21.2419L25.4736 19.4378L24.0461 18.703L22.5141 16.5155L21.812 15.8032L22.1582 14.6294L21.0795 13.5363L20.3566 14.2524L20.3616 15.8083L19.6641 16.5249L21.0936 17.9733L20.3711 18.7149L21.8257 20.1637L21.8282 20.9032L22.5328 22.3542L23.2578 22.352L24.0553 21.61L23.6795 21.2543L23.2507 20.159L24.0507 20.1565L24.7553 21.6079L25.4828 22.3448L23.2603 23.1425Z" fill="white"/>
<path d="M10.3001 28.8981L10.2876 25.0221L11.0863 24.6626L11.1001 28.896L10.3001 28.8981Z" fill="white"/>
<path d="M14.3996 28.8823C13.5996 28.8848 13.5996 28.8848 13.5996 28.8848C13.5937 27.2014 13.5937 27.2014 13.5937 27.2014C13.5921 26.6918 13.3921 26.5392 13.0921 26.5401C12.7421 26.5414 12.5925 26.6952 12.5942 27.2048C12.5996 28.8878 12.5996 28.8878 12.5996 28.8878C11.825 28.8903 11.825 28.8903 11.825 28.8903C11.8146 25.8053 11.8146 25.8053 11.8146 25.8053C12.5896 25.8027 12.5896 25.8027 12.5896 25.8027C12.5904 26.0322 12.5904 26.0322 12.5904 26.0322C12.7396 25.8788 12.9392 25.7504 13.3142 25.7492C14.0142 25.7466 14.3908 26.2553 14.3937 27.1223" fill="white"/>
<path d="M17.6161 25.7854C16.5511 28.8752 16.5511 28.8751 16.5511 28.8751C15.7511 28.8777 15.7511 28.8777 15.7511 28.8777C14.6661 25.7956 14.6661 25.7956 14.6661 25.7956C15.5416 25.7926 15.5416 25.7926 15.5416 25.7926C15.9707 27.1934 15.9707 27.1934 15.9707 27.1934C16.047 27.4739 16.0978 27.7799 16.1728 27.907C16.1724 27.7795 16.247 27.4731 16.3203 27.1921C16.7411 25.7884 16.7411 25.7884 16.7411 25.7884" fill="white"/>
<path d="M19.7688 26.9538C19.6929 26.6733 19.5421 26.4447 19.1921 26.4455C18.8171 26.4468 18.6179 26.6767 18.5438 26.9581M19.275 28.9186C18.3996 28.9216 17.7479 28.2862 17.745 27.3172C17.7417 26.3733 18.3896 25.7336 19.1896 25.7311C20.0396 25.7285 20.5421 26.4408 20.545 27.3078C20.5454 27.4604 20.5454 27.4604 20.5458 27.6138C18.5458 27.6206 18.5458 27.6206 18.5458 27.6206C18.6221 27.9772 18.9725 28.1294 19.2725 28.1281C19.3975 28.1277 19.6975 28.0499 19.8467 27.8969C20.3983 28.3542 20.3983 28.3542 20.3983 28.3542C20.125 28.7885 19.5504 28.9177 19.275 28.9186Z" fill="white"/>
<path d="M22.2753 28.1933C22.5503 28.1924 22.7003 28.1155 22.6999 27.9625C22.6991 27.7589 22.4241 27.6829 22.2741 27.6833C21.6986 27.5324 20.9732 27.458 20.9707 26.668C20.9691 26.0815 21.5428 25.7219 22.1928 25.7202C22.6182 25.7189 23.0432 25.8452 23.3445 26.0738C22.9211 26.6616 22.9211 26.6616 22.9211 26.6616C22.6957 26.5094 22.4203 26.4338 22.1953 26.4346C21.8453 26.4355 21.7703 26.5124 21.7707 26.6654C21.7711 26.7929 22.1961 26.8677 22.422 26.9438C22.9974 27.0947 23.4978 27.246 23.4999 27.8835C23.5024 28.5465 22.8532 28.9052 22.2032 28.9077C21.7032 28.9094 21.2778 28.7071 20.902 28.4789C21.3503 27.9672 21.3503 27.9672 21.3503 27.9672C21.6249 28.1189 21.9253 28.1946 22.2753 28.1933Z" fill="white"/>
<path d="M25.4183 26.5003C24.9933 26.5016 24.6446 26.8598 24.6458 27.2933C24.6471 27.7523 24.9988 28.1081 25.4233 28.1068C25.7233 28.1059 25.9225 27.9521 26.0721 27.7477C26.7238 28.2551 26.7238 28.2551 26.7238 28.2551C26.425 28.6134 25.9258 28.8952 25.4258 28.8969C24.5758 28.8994 23.8488 28.1884 23.8458 27.2959C23.8429 26.4289 24.5658 25.7123 25.4158 25.7094C25.9158 25.7077 26.4167 25.9865 26.7179 26.3426C26.0692 26.8547 26.0692 26.8547 26.0692 26.8547C25.9188 26.652 25.7179 26.4994 25.4183 26.5003Z" fill="white"/>
<path d="M29.2212 27.2778C29.2199 26.8439 28.9187 26.4881 28.4937 26.4894C27.9937 26.4911 27.7203 26.849 27.7212 27.2829C27.7228 27.7419 27.9987 28.0976 28.4987 28.0963C28.9241 28.0946 29.2228 27.7368 29.2212 27.2778ZM29.9962 27.2748C29.9991 28.1673 29.3766 28.883 28.5012 28.886C27.6512 28.889 26.9241 28.1775 26.9212 27.285C26.9182 26.418 27.6412 25.701 28.4912 25.6985C29.3662 25.6959 29.9932 26.4078 29.9962 27.2748Z" fill="white"/>
</g>
</g>
<defs>
<clipPath id="clip0_878_7">
<rect width="40" height="40" fill="white"/>
</clipPath>
<clipPath id="clip1_878_7">
<rect width="20" height="17" fill="white" transform="translate(10 12)"/>
</clipPath>
</defs>
</svg>

<svg xmlns="http://www.w3.org/2000/svg" width="40" height="40" fill="none" viewBox="0 0 40 40"><g clip-path="url(#qqqon_svg-a)"><path fill="#E9D4FC" d="M20 0c11.046 0 20 8.954 20 20s-8.954 20-20 20S0 31.046 0 20 8.954 0 20 0"/><path fill="#450E78" d="M26 6a8 8 0 0 1 8 8v12a8 8 0 0 1-8 8H14a8 8 0 0 1-8-8V14a8 8 0 0 1 8-8z"/><g fill="#fff" clip-path="url(#qqqon_svg-b)"><path d="m23.26 23.143-.722.742-.703-.737L21.457 22l-1.077-.379-.002-.714-.7.002-.369 1.812.379 1.172-1.648.745-.502-.737.347-.742-.002-.79-1.075.004-1.42 1.534-1.076-.353-.005-1.53-1.876-.3-1.348.744-.801-.354-.005-1.555.724-.36 2.87-1.463.426.356 1.072-1.1-.002-.715 1.42-1.458.72-1.558 1.069-1.814 1.774-.363.725-.002.002.714 1.43 1.449.005 1.555 2.232 2.16 2.155 1.472 1.075.353.38 1.095 1.427.71-.723.741-.7.003-.002-.739-1.077-.354-1.805-1.804-1.428-.735-1.532-2.187-.702-.713.346-1.174-1.079-1.093-.722.716.005 1.556-.698.717 1.43 1.448-.723.742 1.455 1.449.002.74.705 1.45.725-.002.797-.742-.375-.356-.43-1.095.8-.002.705 1.45.728.738zM10.3 28.898l-.012-3.876.798-.36.014 4.234zm4.1-.016-.8.003-.006-1.684c-.002-.51-.202-.662-.502-.66-.35 0-.5.154-.498.664l.006 1.683-.775.002-.01-3.085.775-.002v.23c.15-.154.35-.283.724-.284.7-.002 1.077.506 1.08 1.373m3.222-1.337-1.065 3.09-.8.003-1.085-3.082.876-.003.429 1.4c.076.28.127.587.202.714 0-.128.074-.434.147-.715l.421-1.404m3.028 1.166c-.076-.28-.227-.51-.577-.509-.375.002-.574.232-.648.513m.731 1.96c-.875.004-1.527-.632-1.53-1.6-.003-.945.645-1.584 1.445-1.587.85-.003 1.352.71 1.355 1.577v.306l-2 .007c.077.356.427.508.727.507.126 0 .426-.078.575-.231l.551.457c-.273.434-.848.564-1.123.565m3-.726c.275 0 .425-.078.425-.23 0-.204-.276-.28-.426-.28-.575-.15-1.3-.225-1.303-1.015-.002-.587.572-.946 1.222-.948.425-.001.85.125 1.151.354l-.423.588a1.35 1.35 0 0 0-.726-.227c-.35 0-.425.077-.424.23 0 .128.425.203.651.279.575.15 1.076.302 1.078.94.002.663-.647 1.021-1.297 1.024-.5.001-.925-.2-1.301-.43l.448-.51c.275.15.575.227.925.225m3.143-1.693a.787.787 0 0 0-.772.793c.001.46.353.815.777.814.3-.001.5-.155.65-.36l.65.508c-.298.358-.797.64-1.297.642-.85.002-1.577-.709-1.58-1.601a1.595 1.595 0 0 1 1.57-1.587c.5-.001 1 .277 1.302.634l-.649.512c-.15-.203-.351-.356-.65-.355m3.802.778c-.001-.434-.302-.79-.727-.789-.5.002-.774.36-.773.794.002.459.278.815.778.813.425-.001.724-.36.722-.818m.775-.003c.003.892-.62 1.608-1.495 1.611-.85.003-1.577-.709-1.58-1.601a1.595 1.595 0 0 1 1.57-1.587c.875-.002 1.502.71 1.505 1.577"/></g></g><defs><clipPath id="qqqon_svg-a"><path fill="#fff" d="M0 0h40v40H0z"/></clipPath><clipPath id="qqqon_svg-b"><path fill="#fff" d="M10 12h20v17H10z"/></clipPath></defs></svg>
